img/icon-payment/logo-hipercard.svg

<svg width="79" height="34" viewBox="0 0 79 34" fill="none" xmlns="http://www.w3.org/2000/svg">
<path fill-rule="evenodd" clip-rule="evenodd" d="M21.4454 0C18.7475 0 13.3517 0 13.3517 0C9.77998 0.16862 6.85212 1.60956 6.00902 4.58341C5.56447 6.13165 5.31921 7.83318 4.98197 9.44274C3.23444 17.6132 1.6862 25.9982 0 34H63.0027C67.8774 34 71.2191 32.9729 72.1235 29.11C72.5374 27.3165 72.9513 25.2777 73.3499 23.3003C74.9134 15.605 76.477 7.90983 78.0865 0H21.4454Z" fill="#981B1E"/>
<path fill-rule="evenodd" clip-rule="evenodd" d="M20.8167 12.0793C21.1539 11.8493 21.5985 10.7916 21.0926 10.3471C20.9393 10.2091 20.6634 10.1631 20.2955 10.2244C19.9583 10.2858 19.759 10.3931 19.621 10.577C19.4064 10.8683 19.2071 11.7574 19.5444 12.0793C19.8816 12.4012 20.6021 12.2326 20.8167 12.0793ZM16.0033 10.3471C15.7581 11.926 15.4822 13.4589 15.2062 15.0071C13.4434 15.0225 11.6499 15.0991 9.94834 14.9611C10.2703 13.4589 10.5002 11.8493 10.8221 10.3471H8.92129C8.24681 14.1947 7.61831 18.1036 6.86719 21.8746H8.79866C9.10524 19.9431 9.38116 17.981 9.77972 16.1568C11.4353 16.1108 13.4127 16.0495 14.9916 16.2028C14.6697 18.1189 14.2712 19.9584 13.9646 21.8899H15.896C16.5245 17.981 17.1684 14.118 17.9501 10.3624H16.0033V10.3471ZM43.3658 13.6582C41.8636 13.045 40.6832 14.072 40.1314 15.0378C40.254 14.6086 40.3 14.1027 40.4073 13.6582H38.9051C38.5372 16.5094 38.0006 19.1766 37.4794 21.8746H39.181C39.4262 20.2803 39.5182 18.1189 40.0547 16.586C40.484 15.3597 41.5876 14.3173 43.1665 14.8845C43.1819 14.4399 43.3198 14.0874 43.3658 13.6582ZM44.3162 19.9431C44.1629 19.5445 44.117 18.8701 44.1629 18.3642C44.2549 17.2299 44.6688 15.8349 45.3126 15.2064C46.2017 14.3326 47.9492 14.4859 49.3442 14.9765C49.3902 14.5013 49.4821 14.0874 49.5435 13.6275C47.2594 13.2596 45.0827 13.4895 43.933 14.7005C42.814 15.8809 42.0629 18.5941 42.584 20.311C43.1972 22.3038 45.9258 22.4264 48.1485 21.66C48.2405 21.2614 48.3018 20.8169 48.3784 20.403C47.1674 21.0008 44.8528 21.3227 44.3162 19.9431ZM63.3703 13.7041C61.8681 12.953 60.6264 14.21 60.1359 14.9611C60.2738 14.5779 60.2892 14.0567 60.4118 13.6582H58.9096C58.511 16.4787 58.0205 19.2073 57.4533 21.8746H59.1855C59.2008 20.7862 59.4154 19.9738 59.584 18.9161C59.9519 16.632 60.4731 14.1334 63.1404 14.8845C63.2324 14.5013 63.263 14.0567 63.3703 13.7041ZM19.0845 13.6582C19.0385 13.6582 19.0385 13.7195 19.0385 13.7808C18.6706 16.5707 18.1648 19.238 17.6129 21.8746H19.3144C19.7283 19.054 20.1882 16.2948 20.7707 13.6582H19.0845ZM33.9997 13.5049C32.7734 13.5968 31.731 13.9494 30.9952 14.7312C30.0908 15.6816 29.355 17.7817 29.5696 19.7132C29.8762 22.4418 33.2793 22.3498 36.0079 21.6906C36.0538 21.2154 36.1765 20.8015 36.2378 20.3417C35.1188 20.7555 33.172 21.3534 32.0069 20.6176C31.1332 20.0657 31.1332 18.6708 31.4091 17.4598C33.2333 17.3985 35.1494 17.4138 36.9736 17.4598C37.0962 16.6014 37.4181 15.6663 37.1269 14.8078C36.7743 13.6888 35.41 13.3976 33.9997 13.5049ZM35.6246 16.5094H31.639C31.7617 15.5896 32.5895 14.5779 33.8924 14.5319C35.1034 14.4859 35.9925 14.9765 35.6246 16.5094ZM27.5768 13.6582C26.1359 13.1216 24.3884 13.7655 23.6372 14.3786C23.6372 14.4093 23.6219 14.4093 23.5913 14.4093C23.6066 14.394 23.6219 14.394 23.6372 14.3786C23.6526 14.118 23.7446 13.9341 23.7599 13.6735H22.3036C21.6905 17.7204 20.97 21.66 20.2189 25.5536H21.8897C22.135 24.036 22.3036 22.4418 22.6409 21.0161C23.0241 22.5184 25.5534 22.2271 26.6264 21.6446C28.8338 20.449 30.52 14.7772 27.5768 13.6582ZM26.2279 20.3263C25.3235 21.2921 23.0854 21.2767 22.9168 19.6519C22.8401 18.9467 23.1007 18.2109 23.2387 17.4751C23.3766 16.7393 23.4686 16.0342 23.5913 15.375C24.4804 14.2867 27.117 14.1487 27.3776 15.9729C27.6075 17.5671 26.979 19.5292 26.2279 20.3263ZM69.7013 10.1018C69.5633 11.3741 69.364 12.6005 69.1034 13.7808C64.9339 12.4625 62.3893 15.5283 62.4353 19.3146C62.4506 20.0504 62.5732 20.7709 63.0331 21.2921C63.8149 22.1812 66.0836 22.3958 67.2179 21.6446C67.4326 21.5067 67.6625 21.2308 67.8158 21.0468C67.9231 20.9088 68.107 20.5409 68.1377 20.6482C68.0764 21.0468 67.9844 21.4147 67.9844 21.8746H69.5173C69.8086 17.6131 70.7283 13.9801 71.4181 10.1171H69.7013V10.1018ZM65.8996 20.9702C64.75 21.0008 64.1828 20.2803 64.1674 19.1153C64.1215 17.0612 65.0259 14.7772 66.85 14.5779C67.7085 14.4859 68.3216 14.6852 68.9501 14.8998C68.3676 17.1839 68.5822 20.9088 65.8996 20.9702ZM51.2603 13.6582C51.1837 14.1334 51.0457 14.5473 50.9384 15.0071C51.9348 14.7619 55.0619 13.9801 55.3532 15.329C55.4605 15.7736 55.2766 16.2488 55.1539 16.586C52.3334 16.3254 50.034 16.7853 49.4362 18.7934C49.0376 20.1424 49.4821 21.4607 50.3406 21.8286C51.9961 22.5337 54.0196 21.7213 54.7247 20.6023C54.6481 20.9855 54.5868 21.384 54.6021 21.8592H56.0583C56.0737 20.4643 56.273 19.3299 56.4876 18.0729C56.6715 16.9999 57.0087 15.9422 56.9628 14.9918C56.8555 12.8304 53.2684 13.5968 51.2603 13.6582ZM54.0196 20.2957C53.1458 21.1541 50.6931 21.3994 50.9384 19.3453C51.153 17.6437 52.9925 17.2912 55.0006 17.5364C54.8627 18.4562 54.694 19.6365 54.0196 20.2957Z" fill="white"/>
</svg>

<svg width="79" height="34" fill="none" xmlns="http://www.w3.org/2000/svg"><path fill-rule="evenodd" clip-rule="evenodd" d="M21.445 0h-8.093c-3.572.169-6.5 1.61-7.343 4.583-.445 1.549-.69 3.25-1.027 4.86C3.234 17.613 1.686 25.998 0 34h63.003c4.874 0 8.216-1.027 9.12-4.89.414-1.793.828-3.832 1.227-5.81 1.563-7.695 3.127-15.39 4.737-23.3H21.444z" fill="#981B1E"/><path fill-rule="evenodd" clip-rule="evenodd" d="M20.817 12.08c.337-.23.782-1.288.276-1.733-.154-.138-.43-.184-.797-.123-.338.062-.537.17-.675.353-.215.291-.414 1.18-.077 1.502.338.322 1.058.154 1.273 0zm-4.814-1.733c-.245 1.579-.52 3.112-.797 4.66-1.763.016-3.556.092-5.258-.046.322-1.502.552-3.112.874-4.614h-1.9c-.675 3.848-1.304 7.757-2.055 11.528H8.8c.306-1.932.582-3.894.98-5.718 1.656-.046 3.634-.108 5.213.046-.322 1.916-.72 3.755-1.027 5.687h1.931c.628-3.909 1.272-7.772 2.054-11.528h-1.947v-.015zm27.363 3.311c-1.502-.613-2.683.414-3.235 1.38.123-.43.169-.935.276-1.38h-1.502c-.368 2.851-.904 5.519-1.426 8.217h1.702c.245-1.595.337-3.756.874-5.289.429-1.226 1.533-2.269 3.111-1.701.016-.445.154-.798.2-1.227zm.95 6.285c-.153-.399-.199-1.073-.153-1.579.092-1.134.506-2.53 1.15-3.158.889-.873 2.636-.72 4.031-.23.046-.475.138-.889.2-1.349-2.285-.367-4.461-.138-5.611 1.073-1.119 1.18-1.87 3.894-1.349 5.611.613 1.993 3.342 2.115 5.564 1.349.092-.399.154-.843.23-1.257-1.21.598-3.525.92-4.062-.46zm19.054-6.239c-1.502-.751-2.744.506-3.234 1.257.138-.383.153-.904.276-1.303H58.91c-.399 2.82-.89 5.55-1.457 8.217h1.732c.016-1.089.23-1.901.399-2.959.368-2.284.89-4.783 3.556-4.032.092-.383.123-.827.23-1.18zm-44.285-.046c-.047 0-.047.062-.047.123-.367 2.79-.873 5.457-1.425 8.094h1.701c.414-2.821.874-5.58 1.457-8.217h-1.687zM34 13.505c-1.227.092-2.269.444-3.005 1.226-.904.95-1.64 3.05-1.425 4.982.306 2.729 3.71 2.637 6.438 1.978.046-.476.168-.89.23-1.35-1.12.415-3.066 1.012-4.231.277-.874-.552-.874-1.947-.598-3.158a96.21 96.21 0 015.565 0c.122-.859.444-1.794.153-2.652-.353-1.12-1.717-1.41-3.127-1.303zm1.625 3.004h-3.986c.123-.92.95-1.931 2.253-1.977 1.211-.046 2.1.444 1.733 1.977zm-8.048-2.85c-1.441-.537-3.189.106-3.94.72 0 .03-.015.03-.046.03.016-.015.03-.015.046-.03.016-.261.108-.445.123-.705h-1.456c-.613 4.046-1.334 7.986-2.085 11.88h1.67c.246-1.518.415-3.112.752-4.538.383 1.502 2.912 1.211 3.985.629 2.208-1.196 3.894-6.868.95-7.987zm-1.35 6.667c-.904.966-3.142.95-3.31-.674-.077-.705.184-1.441.322-2.177s.23-1.44.352-2.1c.89-1.088 3.526-1.226 3.787.598.23 1.594-.399 3.556-1.15 4.353zm43.474-10.224a34.126 34.126 0 01-.598 3.679c-4.17-1.319-6.714 1.747-6.668 5.534.016.735.138 1.456.598 1.977.782.89 3.05 1.104 4.185.353.215-.138.444-.414.598-.598.107-.138.291-.506.322-.399-.062.399-.154.767-.154 1.227h1.533c.292-4.262 1.211-7.895 1.901-11.758h-1.717v-.015zM65.9 20.97c-1.15.03-1.717-.69-1.733-1.855-.046-2.054.859-4.338 2.683-4.537.859-.092 1.472.107 2.1.322-.582 2.284-.368 6.009-3.05 6.07zm-14.64-7.312c-.076.475-.214.89-.322 1.35.997-.246 4.124-1.028 4.415.321.108.445-.076.92-.2 1.257-2.82-.26-5.119.2-5.717 2.207-.398 1.35.046 2.668.905 3.036 1.655.705 3.679-.108 4.384-1.227a5.301 5.301 0 00-.123 1.257h1.456c.016-1.395.215-2.53.43-3.786.184-1.073.52-2.13.475-3.081-.108-2.162-3.695-1.395-5.703-1.334zm2.76 6.638c-.874.858-3.327 1.103-3.082-.95.215-1.702 2.054-2.055 4.063-1.81-.138.92-.307 2.1-.981 2.76z" fill="#fff"/></svg>
